crypto/blink.svg

<svg fill="none" height="32" viewBox="0 0 32 32" width="32" xmlns="http://www.w3.org/2000/svg"><path d="m16 32c8.8366 0 16-7.1634 16-16 0-8.83656-7.1634-16-16-16-8.83656 0-16 7.16344-16 16 0 8.8366 7.16344 16 16 16z" fill="#121315"/><g fill="#499df3"><path d="m5.4135 23.3119h16.0759l3.209-3.1944h-16.07584v-9.6113l-3.20906 3.1944z"/><path d="m15.0709 13.7002v-6.38834h-3.2389l-3.209 3.19434h3.209v6.4173h12.8668v3.1944l3.2389-3.1944v-3.223h-12.8668z"/></g></svg>

<svg width="32" height="32" fill="none" xmlns="http://www.w3.org/2000/svg"><path d="M16 32c8.837 0 16-7.163 16-16S24.837 0 16 0 0 7.163 0 16s7.163 16 16 16Z" fill="#121315"/><path d="M5.413 23.312H21.49l3.21-3.195H8.622v-9.61L5.413 13.7v9.61Z" fill="#499DF3"/><path d="M15.07 13.7V7.312h-3.238l-3.209 3.194h3.209v6.418h12.867v3.194l3.239-3.194V13.7H15.07Z" fill="#499DF3"/></svg>
